!! 00000] TT[00
!! NN
!!!OTL: Huolang xiangqin
!!!ARE: Asia, China,ÿNingxia, Yongning
!! Ethnic Group: Han
!! I, 190
!!!SCT: C0055
!!!YEM: Copyright 1995, estate of Helmut Schaffrath.
**kern
*ICvox
*Ivox
*M2/4
*k[f#]
*G:
{8dd
16dd
16ee
8cc
16b
16a
=1
16.dd
32a
16dd
16dd
8.g
16a}
=2
{8dd
16dd
16dd
16a
16b
16a
16g
=3
8a
16a
16e
4d}
=4
{8dd
16dd
16ee
8cc
16b
16a
=5
16.dd
32a
16dd
16dd
8.g
16a}
=6
{8dd
16dd
16gg
16a
16b
16a
16g
=7
8a
16a
16e
4d}
==
!!!AGN: Wuge, Mai zahuo diao. Aiqing Shenghuo
!! sehr typisch fuer diese Provinz. Existiert nur dort und wird dort
!!    auch im Schauspiel gesungen.
!!!ONB: ESAC (Essen Associative Code) Database: CHINA
!!!AMT: simple duple
!!!AIN: vox
!!!EED: Helmut Schaffrath
!!!EEV: 1.0
*-
